src/assets/icons/settings.svg

<svg xmlns="http://www.w3.org/2000/svg" height="48" width="48"><path d="m18.3 45.25-1.05-6.7q-.65-.2-1.475-.675-.825-.475-1.375-.925l-6.25 2.9-5.8-10.25 5.7-4.15q-.05-.3-.075-.725Q7.95 24.3 7.95 24t.025-.725q.025-.425.075-.725l-5.7-4.2L8.15 8.2l6.35 2.85q.5-.4 1.3-.85.8-.45 1.45-.65L18.3 2.7h11.4l1.05 6.8q.65.25 1.475.675.825.425 1.375.875l6.3-2.85 5.75 10.15-5.75 4.1q.05.35.1.775.05.425.05.775 0 .35-.05.75t-.1.75l5.75 4.1-5.8 10.25-6.3-2.9q-.55.45-1.325.925-.775.475-1.475.675l-1.05 6.7Zm5.6-14.75q2.7 0 4.6-1.9 1.9-1.9 1.9-4.6 0-2.7-1.9-4.6-1.9-1.9-4.6-1.9-2.7 0-4.6 1.9-1.9 1.9-1.9 4.6 0 2.7 1.9 4.6 1.9 1.9 4.6 1.9Z"/></svg>

<?xml version="1.0" encoding="UTF-8" standalone="no"?>
<svg
   height="48"
   width="48"
   version="1.1"
   id="svg147"
   sodipodi:docname="settings.svg"
   inkscape:version="1.2.1 (9c6d41e410, 2022-07-14)"
   xmlns:inkscape="http://www.inkscape.org/namespaces/inkscape"
   xmlns:sodipodi="http://sodipodi.sourceforge.net/DTD/sodipodi-0.dtd"
   xmlns="http://www.w3.org/2000/svg"
   xmlns:svg="http://www.w3.org/2000/svg">
  <defs
     id="defs151" />
  <sodipodi:namedview
     id="namedview149"
     pagecolor="#505050"
     bordercolor="#eeeeee"
     borderopacity="1"
     inkscape:showpageshadow="0"
     inkscape:pageopacity="0"
     inkscape:pagecheckerboard="0"
     inkscape:deskcolor="#505050"
     showgrid="false"
     inkscape:zoom="4.9166667"
     inkscape:cx="24"
     inkscape:cy="24.101695"
     inkscape:window-width="1500"
     inkscape:window-height="930"
     inkscape:window-x="-6"
     inkscape:window-y="-6"
     inkscape:window-maximized="1"
     inkscape:current-layer="svg147" />
  <path
     id="path145"
     d="m 18.3,45.25 -1.05,-6.7 Q 16.6,38.35 15.775,37.875 14.95,37.4 14.4,36.95 L 8.15,39.85 2.35,29.6 8.05,25.45 Q 8,25.15 7.975,24.725 7.95,24.3 7.95,24 7.95,23.7 7.975,23.275 8,22.85 8.05,22.55 L 2.35,18.35 8.15,8.2 14.5,11.05 Q 15,10.65 15.8,10.2 16.6,9.75 17.25,9.55 L 18.3,2.7 h 11.4 l 1.05,6.8 q 0.65,0.25 1.475,0.675 0.825,0.425 1.375,0.875 l 6.3,-2.85 5.75,10.15 -5.75,4.1 q 0.05,0.35 0.1,0.775 0.05,0.425 0.05,0.775 0,0.35 -0.05,0.75 -0.05,0.4 -0.1,0.75 l 5.75,4.1 -5.8,10.25 -6.3,-2.9 Q 33,37.4 32.225,37.875 31.45,38.35 30.75,38.55 l -1.05,6.7 z M 23.9,30.5 q 2.7,0 4.6,-1.9 1.9,-1.9 1.9,-4.6 0,-2.7 -1.9,-4.6 -1.9,-1.9 -4.6,-1.9 -2.7,0 -4.6,1.9 -1.9,1.9 -1.9,4.6 0,2.7 1.9,4.6 1.9,1.9 4.6,1.9 z" />
</svg>
